X: 1
T: Robertson's Reel
M: 4/4
L: 1/8
R: Reel
F: http://www.thursdaycontra.com/~spuds/tunes/reels/Robertsons.abc 2004-11-08
K: A
AB \
| "A"c2 Bc e2 cB | "D"ABAF "E7"E2 AB | "A"c2Bc "F#m"ecAc | "Bm"B4- "E7"B2AB \
| "A"c2 Bc e2 cB | "D"ABAF "E7"E2 AB | "A"cBce  "E7"BABe |  "A"A6 :|
|: cd \
| "A"e2 ce a2 ga | "D"fecd "E7"e2 cd | "A"e2ce "E7"a2ga | "F#m"f4- "E7"f2ef \
| "A"a2 A2 A2 cB | "D"ABAF "E7"E2 AB | "A"cBce "E7"BABe | "A"A6 :|
